!!!OTL: It's Raining, It's Pouring
!!!COM: unknown
!!!ODT: unknown
!!!YOR: Fake Book of the World's Favorite Songs
!!!YOY: 1990
!!!AST: Children's song
!!!YEC: Brian Luke, 2001
**kern	**harm
*k[]	*k[]
*M2/4	*M2/4
*C:	*C:
*>A	*>A
8e	.
=1	=1
4g	I
8e	.
8a	.
=2	=2
4g	.
8e	.
8f	.
=3	=3
4g	.
8e	.
8a	.
=4	=4
4g	.
8e	.
*>B	*>B
8e	.
=5	=5
8f	V7
8f	.
8d	.
16d	.
16d	.
=6	=6
8f	.
8f	.
8d	.
16d	.
16d	.
=7	=7
16g	.
16g	.
8f	.
8e	.
16d	.
16d	.
=8	=8
4e	I;
8c	.
*-	*-
